X:1
T:Sarabande
T:Sarabande
T:C.Debussy
C:C.Debussy
%%score { ( 1 4 6 ) | ( 2 3 5 ) }
L:1/8
Q:1/4=50
M:3/4
K:E
V:1 treble nm="Piano" snm="Pno."
V:4 treble 
V:6 treble 
V:2 bass 
V:3 bass 
V:5 bass 
V:1
!p!"^Avec une èlègance grave et lente" ([Fcf]2 [Aea]2[Q:1/4=46] (3[Bfb][Aea][Fcf]) | %1
 (.[EBe][Q:1/4=40].[Gdg])[Q:1/4=36] !tenuto![GBdg]4[Q:1/4=36] | %2
[Q:1/4=50]!<(! ([Ff][Gg] [Aea]2!<)![Q:1/4=42]!p!!>(! (3[Bfb][Aea][Fcf])!>)! | %3
[Q:1/4=40]!p! (.[EBe][Q:1/4=38].[Gdg])[Q:1/4=30] !tenuto![GBdg]4 | %4
[Q:1/4=46]!p! (Gc[Q:1/4=40] !tenuto!c2)[Q:1/4=46] (B/A/G) | (GC) (C[B,D][CE][DG]) | %6
[Q:1/4=45] CD[Q:1/4=44]!<(![CE][DG][Q:1/4=42][EA][Gc]!<)! | %7
[Q:1/4=40]!mf! !tenuto![DFBd]2[Q:1/4=30] !tenuto!!fermata![DFBd]4 | %8
[Q:1/4=48]!mp! (e/d/c) (c2- cf) | (e/d/c) (c3[Q:1/4=44] d) |!p![Q:1/4=48] G/F/E!<(! (E3!p! F)!<)! | %11
!p![Q:1/4=46] G/F/E!<(! (E3[Q:1/4=42]!p! F)!<)! |[K:bass]!p![Q:1/4=46] (C3 FCF) | %13
!pp![Q:1/4=44]"^retenu" (C[Q:1/4=42]!>(!D!>)![Q:1/4=40] D4) | %14
[K:treble]!p![Q:1/4=50] ([Fcf]2 [Aea]2[Q:1/4=46] (3[Bfb][Aea][Fcf]) | %15
 (.[EBe].[Gdg])[Q:1/4=44] !tenuto![GBdg]4 | %16
[Q:1/4=50]!<(! ([Ff][Gg] [Aea]2!<)![Q:1/4=46]!p!!>(! (3[Bfb][Aea][Fcf])!>)! | %17
[Q:1/4=44]!p! (.[EBe].[Gdg])[Q:1/4=42] !tenuto![GBdg]4[Q:1/4=50]!mf! | %18
!<(! ([Gg][Bb]) !tenuto![Bb]2 ([cc']/[Bb]/[Aa])!<)![Q:1/4=46][Q:1/4=50] | z6[Q:1/4=48] | %20
[Q:1/4=46] z6[Q:1/4=44][Q:1/4=42] | z6 ||[K:bass][Q:1/4=50]!pp! (.C2 .C2[Q:1/4=46] .[=DE]2) | %23
[Q:1/4=50] (.[B,C]2 !tenuto![B,C]4) | (.C2 .C2[Q:1/4=48]!<(! E[Q:1/4=46]F)!<)! | %25
[Q:1/4=50]!p!!>(! (.[B,C]2!>)!!pp! !tenuto![B,C]4) | %26
[K:treble]!p![Q:1/4=50] (.[=DE]2 .[DE]2[Q:1/4=46] .[=F=G]2) | %27
[Q:1/4=50]!<(! ([=DE]2 [DE]2 =G!mp!A)!<)! | ([^D^G^A]2 [CFA]2[Q:1/4=48] [Dd][Cc]/[^B,^B]/) | %29
[Q:1/4=50]!<(! ([^A,^A][^B,^B][Cc][Dd][Q:1/4=46][^E^e]!mf![Cc])!<)! | %30
[Q:1/4=50]!p! (^EG c2)[Q:1/4=46]!>(! (B/^A/G)!>)! |[Q:1/4=44] [EG]6[Q:1/4=42] | %32
!mp![Q:1/4=50] ([F,B,EF]2 [F,A,=DF]2[Q:1/4=48] [B,B][A,A]/[G,G]/ | %33
[Q:1/4=50] [F,F][G,G][A,=A][B,B][Q:1/4=46]cA) | %34
!p![Q:1/4=50] (.[FAcd]"_très sostenu".[GBce])"^Animez                        un                      peu" ([GBce]2 [FAcd]2) | %35
[Q:1/4=54] ([Acd][Bdeg] [Acdf]/[GBce]/[FAcd] [FAcd]2) | %36
[Q:1/4=58] (.[Acdf].[Bdeg]) ([Bdeg]2 [Acdf]2) | %37
[Q:1/4=62] ([Acdf][degb] [cdfa]/[Bceg]/[Acdf] .[Acdf])[Q:1/4=64]([gac'e'] | %38
 [efac'][dfgb][cefa]!<(![Bdeg][Acdf]) (!>![gac'e']!<)! | %39
!p![efac'][dfgb][cefa][Bdeg][Acdf])[Q:1/4=60]!>(! ([GAce] | %40
[FGBd]!>)![EFAc])!p![Q:1/4=50] (.[DEGB]2[Q:1/4=42] .[B,CEG]2) | %41
"^Au mouvt"[Q:1/4=50]!f! (.F2 .A2[Q:1/4=48] (3.B.A.F |!<(! (EG)!<)![Q:1/4=46] G4)[Q:1/4=40] | %43
!f![Q:1/4=50] (.FG .A2[Q:1/4=48] (3.B.A.F | %44
[Q:1/4=46]!<(! (EG)!<)![Q:1/4=44] !tenuto!G4)[Q:1/4=40] |[Q:1/4=50]!p! (gc' c'2) (b/a/g) | %46
 (gccdeg) |!<(! (cd[Q:1/4=48]eg[Q:1/4=46]a!p!c')!<)! |!p![Q:1/4=44] (.d'2[Q:1/4=42] !tenuto!d'4) | %49
!p![Q:1/4=50] ([DF^Ad]2 [DFAd]3 [^EG^B^e] | cG[Q:1/4=48] G2[Q:1/4=46] F2) | %51
[Q:1/4=50]!<(! ([DF^Ad]2 [DFAd]3 [^EG^B^e]!<)! | %52
[Q:1/4=46] c!mp!G)!mf! ([GBeg]3[Q:1/4=40] [FB=df])[Q:1/4=50] | %53
"_cresc." [GBeg]([FB=df]/[GBeg]/)[Q:1/4=48] [GBeg]!tenuto![FBdf][Q:1/4=46]!tenuto![GBeg][Q:1/4=44]!tenuto![^A^d^^f^a] | %54
!f![Q:1/4=46] [^Ad^^f^a]6[K:bass] |[K:treble]!ff![Q:1/4=50] (b/^a/g !tenuto!g2- gc') | %56
 (b/^a/g !tenuto!g2-[Q:1/4=46] gc') | %57
[Q:1/4=50]!<(! (.[Bdgb].[^Acf^a][Q:1/4=48].[Gceg].[Acfa][Q:1/4=46].[Bdgb].[cfac'])!<)! | %58
[Q:1/4=42] (!tenuto![d^^f^ad']2 !tenuto![dfad']4) |!p![Q:1/4=50] (e/d/c !tenuto!c2- cf) | %60
!p! (e/d/c !tenuto!c2- cf) | (.[EGce].[D^^F^Ad].[C^F=Ac].[D^^F^Ad].[EGce].[^FBdf]) | %62
!<(! ([Gg][Ff]/[Gg]/ .[Gdg])!<)!!p!!p!!p!!>(! ([Bfb][Gdg][D^Ad])!>)! | %63
!<(! ([Gg][Ff]/[Gg]/[Q:1/4=48] .[Gdg])!<)!!p!!>(! ([cfc'][Gdg][D^Ad])!>)! | %64
[Q:1/4=50] [Gdg]!>(!([cgc']!>)![Gdg])!>(!([D^Ad]!>)![Q:1/4=48][G,G])[K:bass]!>(!([D,^A,D]!>)! | %65
 (G,,)C,)!p![Q:1/4=47]"_dim." !tenuto!C,2 B,,/=A,,/ x | %66
"^retenu"!p![Q:1/4=46] !tenuto![C,F,B,C]4[Q:1/4=45] !tenuto![E,A,=DE]2- | %67
 [E,A,DE]2[Q:1/4=44] !tenuto![G,CFG]4 |[K:treble]!pp![Q:1/4=43] [B,EAB]6- | %69
[Q:1/4=42] [B,EAB]2[Q:1/4=41] [Beab]4[Q:1/4=40] |[Q:1/4=38]!ppp! [cegc']6-[Q:1/4=36] | [cegc']6 |] %72
V:2
!ped! ([D,A,C]2!ped-up!!ped! [F,CE]2!ped-up!!ped! (3[A,DF][F,CE][D,A,C])!ped-up! | %1
!ped! (.[E,G,B,]!arpeggio!.[G,,D,B,])!ped-up!!ped! !tenuto![G,B,D]4!ped-up! | %2
!ped! ([D,A,C]2!ped-up!!ped! [F,CE]2!ped-up!!ped! (3[A,DF][F,CE][D,A,C])!ped-up! | %3
!ped! (.[E,G,B,]!arpeggio!.[G,,D,B,])!ped-up!!ped! !tenuto![G,B,D]4!ped-up! | %4
!ped! (G,C!ped-up!!ped! !tenuto!C2)!ped-up!!ped! (B,/A,/G,)!ped-up! | %5
!ped! (G,C,)!ped-up!!ped! ([A,,C,][G,,D,]!ped-up!!ped![F,,E,]E,,)!ped-up! | %6
!ped! [A,,C,][G,,D,]!ped-up!!ped![F,,E,-][E,,E,]!ped-up!!ped![D,,D,][C,,C,]!ped-up! | %7
!ped! [B,,,F,,B,,]2!ped-up!!ped! !tenuto!!fermata![B,,F,B,]4!ped-up! | %8
!ped! [A,C]2!ped-up!!ped! [F,^A,C]2!ped-up!!ped! [D,A,D]2!ped-up! | %9
!ped! [=A,C]2!ped-up!!ped! [F,^A,C]2!ped-up!!ped! [D,A,D]2!ped-up! | %10
 ([F,,C,E,][E,,B,,=D,]!<(![=D,,=A,,=C,][E,,B,,D,][F,,^C,E,]!p![G,,^D,F,])!<)! | %11
 ([F,,C,E,][E,,B,,=D,]!<(![=D,,=A,,=C,][E,,B,,D,][F,,^C,E,]!p![G,,^D,F,])!<)! | %12
!ped! G,3!ped-up!!ped! C,G,C,!ped-up! |!ped! G,^A,, A,,4!ped-up! | %14
!ped! ([D,A,C]2!ped-up!!ped! [F,CE]2!ped-up!!ped! (3[A,DF][F,CE][D,A,C])!ped-up! | %15
!ped! (.[E,G,B,]!arpeggio!.[G,,D,B,])!ped-up!!ped! !tenuto![G,B,D]4!ped-up! | %16
!ped! ([D,A,C]2!ped-up!!ped! [F,CE]2!ped-up!!ped! (3[A,DF][F,CE][D,A,C])!ped-up! | %17
!ped! (.[E,G,B,]!arpeggio!.[G,,D,B,])!ped-up!!ped! !tenuto![G,B,D]4!ped-up!!ped! | %18
 !arpeggio![C,G,CE]3/2!ped-up!!ped! x/8x/8x/8x/8 !arpeggio![B,,F,B,DF]3/2!ped-up!!ped! (5:4:5x/8x/8x/8x/8x/8 !arpeggio![A,,E,A,CEA]2!ped-up! | %19
!mp!!<(!!ped! ([G,,,G,,][B,,,B,,])!<)!!ped-up!!ped! !tenuto![B,,,B,,]2!ped-up!"^retenu""^dim."!ped! (C,/B,,/).A,,!ped-up! | %20
!ped! (G,,E,,)!ped-up!!p!!>(!!ped! E,,2!ped-up!!ped! (!tenuto!F,,2!>)! |!pp! C,,6)!ped-up! || %22
!ped! (.[G,,C,]2!ped-up!!ped! .[G,,C,]2!ped-up!!ped! .[B,,E,]2)!ped-up! | %23
!ped! (.[G,,C,]2!ped-up!!ped! .[G,,C,]4)!ped-up! | %24
!ped! z2!ped-up!!ped! (.[G,,C,]2!ped-up!!ped! .[B,,E,]2)!ped-up! | %25
!ped! (.[G,,C,]2!ped-up!!ped! !tenuto![G,,C,]4)!ped-up! | %26
!ped! (.[B,,E,]2!ped-up!!ped! .[B,,E,]2!ped-up!!ped! .[=D,=G,]2)!ped-up! | %27
!ped! (.[B,,E,]2!ped-up!!ped! .[B,,E,]2!ped-up!!ped! .[=D,=G,]2)!ped-up! | %28
!mf!!ped! (.[D,,G,,F,]2!ped-up!!ped! .[F,,C,F,]2!ped-up!!ped! .[G,,D,G,]2)!ped-up! | %29
!ped! (.[D,,G,,F,]2!ped-up!!ped! .[F,,C,^A,]2!ped-up!!ped! .[^A,,^E,C]2)!ped-up! | %30
!ped! B,2!ped-up!!ped! G,2!ped-up!!ped! ([G,,G,]2!ped-up! |!ped! [E,,B,,E,]6)!ped-up! | %32
!ped! [B,,,E,,=D,]2!ped-up!!ped! [=D,,A,,D,]2!ped-up!!ped! [E,,B,,E,]2!ped-up! | %33
!ped! [B,,,E,,=D,]2!ped-up!!ped! [=D,,A,,F,]2!ped-up!!ped! [F,,C,A,]2!ped-up! | %34
!ped! (.[F,A,CD].[G,B,CE])!ped-up!!ped! ([G,B,CE]2!ped-up!!ped! [F,A,CD]2)!ped-up! | %35
!ped![I:staff -1] F[I:staff +1]([B,DEG]!ped-up!!ped! [A,CDF]/[G,B,CE]/[F,A,CD]!ped-up!!ped! [F,A,CD]2)!ped-up! | %36
!ped! (.[A,CDF].[B,CEG])!ped-up!!ped! ([B,CEG]2!ped-up!!ped! [A,CDF]2)!ped-up! | %37
!ped! z[K:treble] ([DFGB]!ped-up!!ped! [CEFA]/[B,DEG]/[A,CDF]!ped-up!!ped! .[A,CDF])!ped-up!!ped!([GAce] | %38
 [EFAc][DFGB][CEFA][B,DEG][A,CDF])!ped-up!!ped! (!>![GAce] | %39
[EFAc][DFGB][CEFA][B,DEG][A,CDF])!ped-up![K:bass]!ped! ([G,A,CE] | %40
[F,G,B,D][E,F,A,C])!ped-up!!ped! (.[D,E,G,B,]2!ped-up!!ped! .[B,,C,E,G,]2)!ped-up! | %41
!ped! [F,A,]6!ped-up! |!ped! [E,,B,,]2!ped-up! !arpeggio![G,,,G,,^D,]4 |!ped! [F,A,]6!ped-up! | %44
!ped! [E,,B,,]2 !arpeggio![G,,,G,,^D,]4!ped-up! | %45
[K:treble]!ped! ([CEG]2!ped-up!!ped! [DFG]2!ped-up!!ped! [EG]2!ped-up! | %46
!ped! [FA][EG]!ped-up!!ped! [DF]2!ped-up!!ped! [CE]2)!ped-up! | %47
[K:bass]!ped! ([B,D]2!ped-up!!ped! [A,C][G,B,D]!ped-up!!ped! [F,A,CF]2)!ped-up! | %48
!ped! (.[B,,,F,,B,,]2[K:treble] !tenuto![B,DFB]4)!8vb(!!ped!!ped-up!!8vb)! | %49
[K:bass] [F,^A,]2 [F,A,]3 [G,^B,] |!ped! G,2 [F,,C,]2 [B,,F,]2!ped-up!!ped!!ped-up! | %51
 [F,^A,]2 [F,A,]3 [G,^B,] |!ped! G,2!ped! [B,E]3!ped-up!!ped! [B,=D]!ped!!ped-up! | %53
 [B,E][B,=D]/[B,E]/!ped-up!!ped! [B,E][B,D]!ped-up!!ped! [B,E][^D^^F]!ped-up!!ped! | %54
 [^D^^F]6!ped-up! |!ped! ([G,B,DG]2!ped-up!!ped! [F,^A,CF]2!ped-up!!ped! [E,G,B,E]2)!ped-up! | %56
!ped! ([G,B,DG]2!ped-up!!ped! [F,^A,CF]2!ped-up!!ped! [E,G,B,E]2)!ped-up! | %57
!ped! (.[G,B,DG]!ped-up!!ped!.[^A,CF]!ped-up!!ped!.[CE]!ped-up!!ped!.[A,CF]!ped-up!!ped!.[G,B,DG]!ped-up!!ped!.[F,CF^A])!ped-up!!ped! | %58
 [D^^F^A]2!ped-up!!ped! [DFA]4!ped-up! | %59
!ped! ([C,G,C]2!ped-up!!ped! [B,,F,B,]2!ped-up!!ped! [A,,E,A,]2)!ped-up! | %60
!ped! ([C,G,C]2!ped-up!!ped! [B,,F,B,]2!ped-up!!ped! [A,,E,A,]2)!ped-up! | %61
!ped! (.[C,G,C]!ped-up!!ped!.[D,^A,]!ped-up!!ped!.[F,=A,]!ped-up!!ped!.[D,^A,]!ped-up!!ped!.[C,G,C]!ped-up!!ped!.[B,,F,D])!ped-up!!ped! | %62
 D!ped-up!!ped!C!ped-up!!ped! D!ped-up!!ped! [B,DF]!ped-up!!ped![G,D]!ped-up!!ped![D,F,^A,]!ped-up!!ped! | %63
 D!ped-up!!ped!C!ped-up!!ped! D!ped-up!!ped! [CEG]!ped-up!!ped![G,D]!ped-up!!ped![D,F,^A,]!ped-up! | %64
!ped! .[G,D]!ped-up!!ped!([CEG][G,D])!ped-up!!ped!([D,^A,][G,,D,])!ped-up!!ped!([D,,^A,,]!ped-up! | %65
!ped! (G,,,)C,,)!ped-up!!ped! !tenuto!C,,2!ped-up!!ped! (B,,,/=A,,,/[G,,,G,,])!ped-up! | %66
!ped! (G,,2 !arpeggio![C,,,C,,]/4) x7/4!ped-up!!ped! (B,,2 | %67
 !arpeggio![E,,,E,,]/4) x7/4!ped-up!!ped! (D,2 !arpeggio![G,,,G,,]/4) x7/4!ped-up! | %68
!ped! !arpeggio![F,,F,]/4 x7/4 !arpeggio![B,,B,]/4 x7/4 !arpeggio![F,F]/4 x7/4 | %69
[K:treble] !arpeggio![B,B]/4 x7/4 !arpeggio![Ff]/4 x7/4 !arpeggio![Bb]/4 x7/4!ped-up! | %70
[K:bass]!ped! [CEG]6- | [CEG]6!ped-up! |] %72
V:3
 x6 | x3/4 x/8x/8 x x4 | x6 | x/ (3x/4-x/4-x/4- x x4 | x6 | x6 | x6 | x6 | x6 | x6 | x6 | x6 | %12
 (^A,,3 F,,A,,F,,) | ^A,,D,, D,,4 | x6 | x3/4 x/8x/8 x x4 | x6 | x3/4 x/8x/8 x x7/2 (3x/4x/4x/4 | %18
 x6 | x4 (C,,/B,,,/).A,,, | (G,,,E,,,) E,,,2 (!tenuto!F,,,2 | C,,,6) || x6 | z2 z (.C,,2 .G,,, | %24
 .C,,,2) x4 | z2 z (.C,,2 .G,,,) | x6 | x6 | x6 | x6 | G,^E, =E,2 D,2 | %31
 z!pp!!>(! (B,,,2 E,,,) !tenuto!E,,,2!>)! | x6 | x6 | z2 z (C,2 F,, | F,,,2) x4 | z2 z (C,2 F,, | %37
 F,,,2)[K:treble] x4 | x6 | x5[K:bass] x | x6 | [=D,,A,,=D,]6 | x7/4 x/8x/8 x4 | [=D,,A,,=D,]6 | %44
 x7/4 x/8x/8 x4 |[K:treble] x6 | x6 |[K:bass] x6 | x4[K:treble] x7/4!8vb(! x/8x/8!8vb)! | %49
[K:bass] !arpeggio![G,,D,]6 | C,2 x2 x7/4 x/8x/8 | (!arpeggio![G,,D,]6 | %52
 C,2) !arpeggio![E,,B,,E,G,]3 !arpeggio![B,,F,] | %53
 !arpeggio![E,G,]!arpeggio![B,,F,]/E,/ E,!arpeggio![B,,F,] E,!arpeggio![D,^A,] | %54
 !arpeggio![D,^A,]6 | x6 | x6 | x4 x x3/4 x/8x/8 | !arpeggio![D,^A,]2 z2 D,2 | x6 | x6 | %61
 x4 x x3/4 x/8x/8 | (G,F,/G,/ G,) x x x3/4 x/8x/8 | (G,F,/G,/ .G,) x3 | x6 | x6 | x6 | x6 | x6 | %69
[K:treble] x6 |[K:bass] z2 [C,,,C,,]2 [C,,,C,,]2 | [C,,,C,,]6 |] %72
V:4
 x6 | x6 | c2 x4 | x6 | x6 | x2[I:staff +1] [E,A,]G,A,[I:staff -1][G,B,] | %6
[I:staff +1] [E,A,][G,B,]A,[I:staff -1][G,B,][A,C][CE] | x6 | [EA]2 [F^A]2 [FA]2 | %9
 [E=A]2 [F^A]2 [FA]2 | (^A,G,F,G,A,^B,) | (^A,G,F,G,A,^B,) |[K:bass] E,3 ^A,E,A, | %13
 E,[^^F,^A,] [F,A,]4 |[K:treble] x6 | x6 | c2 x4 | x6 | [ce]2 [df]2 e2 | x6 | x6 | x6 || %22
[K:bass] [F,B,]2 [F,B,]2 A,G,/=G,/ | F,2 F,4 | [F,B,]2 [F,B,]2 A,G,/=G,/ | F,2 F,4 | %26
[K:treble] A,2 A,2 =CB,/_B,/ | A,2 A,2 =C=B, | ^A,2 A,2 [F^A]2 | [DG]2 [F^A]2 A2 | %30
 D2 [^^CF]2 [B,D]2 | [G,B,]6 | x2 x2 [=DF]2 | [B,E]2 [=DF]2 [CF]2 | x6 | x6 | x6 | x6 | x6 | x6 | %40
 x6 | =D6 | [E,G,B,]2 [G,B,^D]4 | =D6 | [E,G,B,]2 [G,B,^D]4 | c2 [cf]2 [Be]2 | cA A2 [Gc]2 | %47
 [FA]2 [EAc][GBd] [Acf]2 | [dfb]2 [dfb]4 | x6 | [C=EG]2 [^A,E]2 [B,=D]2 | x6 | [C=EG]2 x4 | x6 | %54
 z2[K:bass]!<(! !^!D,2 !^!D2!<)! |[K:treble] [Bdg]2 [^Acf]2 [GBe]2 | [Bdg]2 [^Acf]2 [GBe]2 | x6 | %58
 x6 | [EGc]2 [D^FB]2 [CE=A]2 | [EGc]2 [D^FB]2 [CE=A]2 | x6 | dc x4 | dc x4 | x5[K:bass] x | x6 | %66
 x6 | x6 |[K:treble] x6 | x6 | x6 | x6 |] %72
V:5
 x6 | x6 | x6 | x6 | x6 | x6 | x6 | x6 | x6 | x6 | x6 | x6 | x6 | z2 z2!pp! !fermata!D,,,2 | x6 | %15
 x6 | x6 | x6 | x6 | x6 | x6 | x6 || x6 | x6 | x6 | x6 | x6 | x6 | x6 | x6 | x6 | x6 | x6 | x6 | %34
 x6 | x6 | x6 | x[K:treble] x5 | x6 | x5[K:bass] x | x6 | x6 | x6 | x6 | x6 |[K:treble] x6 | x6 | %47
[K:bass] x6 | x2[K:treble] x15/4!8vb(! x/4!8vb)! |[K:bass] x6 | x6 | x6 | %52
 x3/2 (5:4:5x/8x/8x/8x/8x/8 x2 x3/4 (3x/8x/8x/8 x3/4 (3x/8x/8x/8 | %53
 x3/4 (3x/8 x/8x/8 x x3/4 (3x/8 x/8x/8 x x3/4 (3x/8 x/8x/8 x3/4 (3x/8 x/8x/8 | %54
 z2 [D,,,D,,]2 [D,,D,]2 | x6 | x6 | x6 | x6 | x6 | x6 | x6 |{/[G,,D,]} !arpeggio!x x x4 | %63
{/[G,,D,]} !arpeggio!x x x4 | x6 | x6 | x6 | x6 | x6 |[K:treble] x6 |[K:bass] x6 | C,6 |] %72
V:6
 x6 | x6 | x6 | x6 | x6 | x6 | x6 | x6 | x6 | x6 | x6 | x6 |[K:bass] x6 | x6 |[K:treble] x6 | x6 | %16
 x6 | x6 | x6 | x6 | x6 | x6 ||[K:bass] x6 | x6 | x4 =D2 | x6 |[K:treble] x6 | x4 =F2 | x6 | x6 | %30
 x6 | x6 | x6 | x6 | x6 | x6 | x6 | x6 | x6 | x6 | x6 | x6 | x6 | x6 | x6 | x6 | x6 | x6 | x6 | %49
 x6 | x6 | x6 | x6 | x6 | x2[K:bass] x4 |[K:treble] x6 | x6 | x6 | x6 | x6 | x6 | x6 | x6 | x6 | %64
 x5[K:bass] x | x6 | x6 | x6 |[K:treble] x6 | x6 | x6 | x6 |] %72

